packages/icons/src/assets/cloud-key.svg

<svg xmlns="http://www.w3.org/2000/svg" xml:space="preserve" style="fill-rule:evenodd;clip-rule:evenodd;stroke-linejoin:round;stroke-miterlimit:2" viewBox="0 0 24 24"><path d="M22.5 11.25v2.261a3.747 3.747 0 0 1-4.27 3.691L14.432 21H11.25v-3.181l.568-.569H6.15c-2.564 0-4.65-2.052-4.65-4.575 0-2.298 1.73-4.205 3.975-4.527C5.971 5.213 8.575 3 11.678 3c2.29 0 4.393 1.236 5.488 3.188h.032c2.822 0 5.06 2.189 5.28 5.062zM3 12.675c0 1.696 1.413 3.075 3.15 3.075h7.168l1.73-1.73a3.76 3.76 0 0 1 1.79-3.75 3.72 3.72 0 0 1 3.863.022l.034.024.03.021c-.523-1.557-1.896-2.65-3.567-2.65l-.969.007-.2-.437C15.26 5.582 13.552 4.5 11.677 4.5c-2.537 0-4.636 1.93-4.78 4.393l-.04.707H6.15C4.413 9.6 3 10.98 3 12.675m15.175 2.988c.792.21 1.6-.006 2.166-.572a2.253 2.253 0 0 0-2.726-3.539c-.886.539-1.29 1.529-1.027 2.522l.11.418-3.948 3.947V19.5h1.06l3.948-3.947zm.045-1.633a.75.75 0 0 1-.251-.56.75.75 0 1 1 .251.56"/></svg>

<svg width="100%" height="100%" viewBox="0 0 24 24" version="1.1" xmlns="http://www.w3.org/2000/svg" xmlns:xlink="http://www.w3.org/1999/xlink" xml:space="preserve" style="fill-rule:evenodd;clip-rule:evenodd;stroke-linejoin:round;stroke-miterlimit:2;"><g transform="matrix(1,0,0,1,-0.04,0)"><path d="M22.54,11.25L22.54,13.511C22.54,15.558 20.856,17.241 18.81,17.241C18.629,17.241 18.449,17.228 18.27,17.202L14.472,21L11.29,21L11.29,17.819L11.858,17.25L6.19,17.25C3.626,17.25 1.54,15.198 1.54,12.675C1.54,10.377 3.27,8.47 5.515,8.148C6.011,5.213 8.615,3 11.718,3C14.008,3 16.111,4.236 17.206,6.188L17.238,6.188C20.06,6.188 22.298,8.377 22.518,11.25L22.54,11.25ZM3.04,12.675C3.04,14.371 4.453,15.75 6.19,15.75L13.358,15.75L15.088,14.02C14.875,12.526 15.583,11.043 16.878,10.27C18.067,9.557 19.56,9.565 20.741,10.292L20.775,10.316L20.805,10.337C20.282,8.78 18.909,7.687 17.238,7.687L16.269,7.694L16.069,7.257C15.3,5.582 13.592,4.5 11.717,4.5C9.18,4.5 7.081,6.43 6.937,8.893L6.897,9.6L6.19,9.6C4.453,9.6 3.04,10.98 3.04,12.675M18.215,15.663C19.007,15.873 19.815,15.657 20.381,15.091C20.804,14.668 21.041,14.095 21.041,13.497C21.041,12.707 20.626,11.972 19.948,11.565C19.245,11.141 18.363,11.136 17.655,11.552C16.769,12.091 16.365,13.081 16.628,14.074L16.738,14.492L12.79,18.439L12.79,19.5L13.85,19.5L17.798,15.553L18.215,15.663ZM18.26,14.03C18.101,13.888 18.009,13.684 18.009,13.47C18.009,13.059 18.348,12.72 18.759,12.72C18.972,12.72 19.176,12.811 19.318,12.97C19.441,13.108 19.509,13.286 19.509,13.47C19.509,13.882 19.171,14.22 18.759,14.22C18.575,14.22 18.397,14.153 18.26,14.03"/></g></svg>
